app/images/grid__icon_car.svg

<svg width="63" height="63" viewBox="0 0 63 63" fill="none" xmlns="http://www.w3.org/2000/svg">
<path d="M20.3226 34.5484C18.6419 34.5484 17.2742 33.1807 17.2742 31.5C17.2742 29.8194 18.6419 28.4517 20.3226 28.4517C22.0032 28.4517 23.3709 29.8194 23.3709 31.5C23.3709 33.1807 22.0032 34.5484 20.3226 34.5484Z" fill="#C40B0B"/>
<path d="M42.6773 34.5484C40.9966 34.5484 39.6289 33.1807 39.6289 31.5C39.6289 29.8194 40.9966 28.4517 42.6773 28.4517C44.358 28.4517 45.7257 29.8194 45.7257 31.5C45.7257 33.1807 44.358 34.5484 42.6773 34.5484Z" fill="#C40B0B"/>
<path d="M60.9677 56.9032V0H54.871V3.62656L52.2148 2.03226H10.7852L8.12903 3.62656V0H2.03226V56.9032H0V63H10.1613V56.9032H8.12903V46.7419H13.2097C13.2097 48.9835 15.0326 50.8064 17.2742 50.8064C19.5158 50.8064 21.3387 48.9835 21.3387 46.7419V42.6774H41.6613V46.7419C41.6613 48.9835 43.4842 50.8064 45.7258 50.8064C47.9674 50.8064 49.7903 48.9835 49.7903 46.7419H54.871V56.9032H52.8387V63H63V56.9032H60.9677ZM58.9355 2.03226V52.8387H56.9032V2.03226H58.9355ZM45.7258 36.5806V38.6129H49.7903C50.3512 38.6129 50.8064 39.0681 50.8064 39.629C50.8064 40.1899 50.3512 40.6452 49.7903 40.6452H13.2097C12.6488 40.6452 12.1935 40.1899 12.1935 39.629C12.1935 39.0681 12.6488 38.6129 13.2097 38.6129H43.6935V36.5806H15.2419V29.1019C15.2419 28.6193 15.5854 28.1996 16.0589 28.1051L20.3226 27.2526V18.2903C20.3226 17.7304 20.7778 17.2742 21.3387 17.2742H41.6613C42.2222 17.2742 42.6774 17.7304 42.6774 18.2903V27.2526L46.9411 28.1051C47.4146 28.1996 47.7581 28.6193 47.7581 29.1019V36.5806H45.7258ZM47.3404 26.1125L44.7097 25.5861V18.2903C44.7097 16.6096 43.342 15.2419 41.6613 15.2419H21.3387C19.658 15.2419 18.2903 16.6096 18.2903 18.2903V25.5861L15.6596 26.1125C14.24 26.396 13.2097 27.6529 13.2097 29.1019V29.4677H8.12903V10.7364L12.475 8.12903H50.524L54.871 10.7364V29.4677H49.7903V29.1019C49.7903 27.6529 48.76 26.396 47.3404 26.1125ZM11.3491 4.06452H51.6509L54.871 5.99719V8.36681L51.0879 6.09677H11.9121L8.12903 8.36681V5.99719L11.3491 4.06452ZM6.09677 2.03226V52.8387H4.06452V2.03226H6.09677ZM4.06452 56.9032V54.871H6.09677V56.9032H4.06452ZM8.12903 44.7097V31.5H13.2097V36.5806C11.529 36.5806 10.1613 37.9484 10.1613 39.629C10.1613 41.3097 11.529 42.6774 13.2097 42.6774V44.7097H8.12903ZM49.7903 44.7097V42.6774C51.471 42.6774 52.8387 41.3097 52.8387 39.629C52.8387 37.9484 51.471 36.5806 49.7903 36.5806V31.5H54.871V44.7097H49.7903ZM56.9032 54.871H58.9355V56.9032H56.9032V54.871Z" fill="#02133C"/>
<path d="M22.3547 26.4193H40.6451V19.3064H22.3547V26.4193Z" fill="#02133C"/>
<path d="M37.5969 32.5161H25.4033V34.5484H37.5969V32.5161Z" fill="#02133C"/>
<path d="M37.5969 28.4517H25.4033V30.4839H37.5969V28.4517Z" fill="#02133C"/>
<path d="M58.9356 48.7742H56.9033V50.8064H58.9356V48.7742Z" fill="#C40B0B"/>
<path d="M58.9356 44.7097H56.9033V46.742H58.9356V44.7097Z" fill="#C40B0B"/>
<path d="M6.09671 48.7742H4.06445V50.8064H6.09671V48.7742Z" fill="#C40B0B"/>
<path d="M6.09671 44.7097H4.06445V46.742H6.09671V44.7097Z" fill="#C40B0B"/>
</svg>

<svg width="63" height="63" fill="none" xmlns="http://www.w3.org/2000/svg"><path d="M20.323 34.548a3.052 3.052 0 01-3.049-3.048 3.052 3.052 0 013.049-3.048A3.052 3.052 0 0123.37 31.5a3.052 3.052 0 01-3.048 3.048zm22.354 0A3.052 3.052 0 0139.63 31.5a3.052 3.052 0 013.048-3.048 3.052 3.052 0 013.049 3.048 3.052 3.052 0 01-3.049 3.048z" fill="#C40B0B"/><path d="M60.968 56.903V0H54.87v3.627l-2.656-1.595h-41.43L8.13 3.627V0H2.032v56.903H0V63h10.161v-6.097H8.13V46.742h5.08a4.069 4.069 0 004.065 4.064 4.069 4.069 0 004.065-4.064v-4.065h20.32v4.065a4.069 4.069 0 004.065 4.064 4.069 4.069 0 004.064-4.064h5.081v10.161h-2.032V63H63v-6.097h-2.032zm-2.033-54.87v50.806h-2.032V2.032h2.032zM45.725 36.58v2.032h4.065a1.016 1.016 0 010 2.032H13.21a1.017 1.017 0 010-2.032h30.483V36.58H15.242V29.1c0-.482.343-.901.817-.996l4.264-.852V18.29c0-.56.455-1.016 1.016-1.016H41.66c.561 0 1.016.456 1.016 1.016v8.963l4.264.852c.474.095.817.514.817.997v7.479h-2.032zm1.615-10.469l-2.63-.526V18.29a3.052 3.052 0 00-3.049-3.048H21.34a3.052 3.052 0 00-3.049 3.048v7.296l-2.63.527a3.055 3.055 0 00-2.45 2.989v.366H8.129V10.736l4.346-2.607h38.049l4.347 2.607v18.732h-5.08v-.366a3.055 3.055 0 00-2.45-2.99zM11.35 4.066h40.3l3.221 1.932v2.37l-3.783-2.27H11.912L8.13 8.367v-2.37l3.22-1.932zM6.096 2.032V52.84H4.065V2.032h2.032zM4.065 56.903v-2.032h2.032v2.032H4.065zM8.129 44.71V31.5h5.08v5.08a3.052 3.052 0 00-3.048 3.049 3.052 3.052 0 003.049 3.048v2.033H8.129zm41.661 0v-2.033a3.052 3.052 0 003.049-3.048 3.052 3.052 0 00-3.049-3.048V31.5h5.081v13.21h-5.08zm7.113 10.161h2.032v2.032h-2.032v-2.032z" fill="#02133C"/><path d="M22.355 26.42h18.29v-7.114h-18.29v7.113zm15.242 6.096H25.403v2.032h12.194v-2.032zm0-4.064H25.403v2.032h12.194v-2.032z" fill="#02133C"/><path d="M58.936 48.774h-2.033v2.032h2.033v-2.032zm0-4.064h-2.033v2.032h2.033V44.71zM6.097 48.774H4.064v2.032h2.033v-2.032zm0-4.064H4.064v2.032h2.033V44.71z" fill="#C40B0B"/></svg>
